X:8
%%scale 0.65
T:Amavi
C:Michael East
%%score [1 | 2 |3 |4 |5]
M:4/2
L:1/4
K:F
V:1 name="Treble I"
Z4 | z4 A2 f2-|f e/d/ e2 d c B A | G2 A B c4 |!mediumphrase! c F/G/ A B A/B/ c d/e/ f |
e2 d2 ^c2 d2-|d ^c/=B/ c2 d2 A2-|A A B2 A4 | G2 F G A B  c2 | A4 z4 |
z8 | z8| z4 A2 d2-|d ^c/=B/ c2 d2 A2 -|A2 B2 A4 |
G2 F3 G A F | G4 F2 f e | d2 g4 f2 | e4 d4 | z8 |
A2 d3 ^c/=B/ c2 |d4 d2 A2 | e6 A2 | A3 G F4| z4 F2 B2-|
B A/G/ A2 G3 G | A2 a2 g2 f2-|f2 e2 d4 | e4 d4 | z4 F2 B2-|
B A/G/ A2 !mediumphrase! B B/c/ d _e | d/_e/ f e d c2 e2 |d4 d4 | d3 c =B A G2 | d2 G2 G3 A |
B2 A2 z4 | z4 G2 d2-|d c/B/ c2 d4 | z2 G2 ^F2 G2 | A3 A =B4 ||
z d>d d d g>f g | f _e d d z f>f f | f B z2 z4 | z8 | z/ f/f/_e/ d c>B A z2 |
z/ f/f/_e/ d c>B A z2 | z/ g/g/f/ _e d2 c2 =B | z/ c/c/B/ A2 B B2 B-|B B c2 !mediumphrase! d4|
f4 _e2 d2-|d2 c4 B2 | A4 z4 | z8 | z4 g2 _e2-|e2 d2 c4-|
c2 B3 A/B/ A G | A2 G g2 ^f/g/ f e | ^f2 d2 z G ^F G | A B ^F G A B/c/ d2-|d _e d c z e d g-|
g/f/ _e d2 e2 d2 | d4 d2 d2-|d ^c/d/ c =B c A f2-| f e/f/ e d e e ^c d | e f  ^c d e f e2 |
A B A G d4 | z d ^c d e f c d | e f e d z g2 f | e2 d3 ^c/=B/ c2 |
d2 z f/f/ f f f2 | f d>c A B/c/ d2 ^c | z z/ ^F/ G/A/B/c/ d/c/d/e/ ^f g-|g d z/ A/B/c/ d/e/ f>_e d |
c B2 A B z/ c/ A/B/ c-|c B A z/ A/ B/c/d/e/ f g | e2 A4 A2 | A4 z4 |
z2 z  ^G A =B c d |e2 c2 =B4 | z e f g a2 A2 | z4 z e f g | a2 A2  f e d2 |
z2 z e f g a2 | g3 f e4 | z4 d2 c2-| c2 =B2 ^c2 d2-|d2  ^c2 Hd4 |]
V:2 name="Treble II"
Z3 |z4 A2 f2-|f e/d/ e4 d2-|d2 c2 B4-|B2 A2 G4 |
!mediumphrase!A A/B/ c d/e/ f e d c |BG g3 f/e/ f e/d/ |e4 d4-|d4 d3 c | B c d2 c d e2 |
f3 e d4 | ^c6 A2 | z4 A2 f2-|f e/d/ e4 d2 | e2 A2 A>G ^F G |
A d B G A4 | z4 A2 d2-|d ^c/=B/ c2 d4-| d2 d2 ^c2 d2 | e2 A2 F3 G |
A B c4 G2 | d2 A2 A4-|A2 B2 A4 | z4 A2 d2-|d ^c/=B/ c2 d3 =c |
B c d2 d4 | G2 F2 c4 | c4 z2 d2 | a2 g2 f3 f | e2 A2 z4 |
B2 _e3 d/c/ d2 | c3 c !mediumphrase!d2 A/B/ c | z F G/A/ B A2 G2 | ^F2 G3 F/E/ F2 | G4 d2 _e2 |
d4 c4 | d2 d3 c B A | G4 z4 | z4 d2 f2-|f _e/d/ e2 d4-| d2 d2 d4 ||
z g>g g f _e>f e | d c =B B z d>d d | f d2 d d d d2 | d2 d _e2 f g f |
c2 z/ f/f/_e/ d c>B A | z2 z/ f/f/_e/ d c>B A | z2 z/ g/g/f/ _e e d2 | G2 F2 z/ f/f/_e/ d e-|
e d c2 B4-|B2 F2 G4 | D4 z4 | z8 | d2 c4 B2 | A4 G4 |
z2 B2 c2 A2 | d G g3 ^f/g/ f e | ^f2 d2 d4 | z2 z G ^F G A B | ^F G A B A G2 F |
G8-|G4 z4 | z4 A2 f2-|f e/f/ e d e2 d2-|d ^c/d/ c =B c2 z d |
^c d e f e d2 c | d2 z2 D d3/2 c/B/G/ | E D z d ^c d e f | ^c d e f g2 g2-|
g2 f2 e4 | d2 z d/d/ d d c2 | c B/c/ d2 d F/G/ A2 | z/ ^F/G/A/ B/c/d/e/ ^f g z/ A/B/c/ |
d/e/ ^f g d z d c =f-|f/_e/ d c2 z/ c/d/=e/ f _e | z/ A/B/c/ d/_e/ d z d>c B | A2 z2 z/ E/F/G/ A e |
f e/d/ c d e4 | z ^G A =B c d e ^f | ^g2 a4 g2 | a2 A2 z2 z ^c | d e f g  a2 f2 |
e4 z E F G | A =B c2 _B2 A F | G A B2 A2 e2 | f2 e2 z4 | a2 g4 f2 | e4 Hd4 |]
V:3 name="Tenor I" clef=alto middle=c octave=-1
z8 | z8 | z4 d2 f2-|f e/d/ e d ^c2 d2-| d2 ^c =B c2 d2 | A4 z4 |
c2 f3 e/d/ e2 |f2 z g d a b f | g4 a4 | a3 g ^f d f2-|f2 g2 d4 |
z8 | d2 a3 g/f/ g2 | a2 e4 f2 | e4 d2 a2 | d2 g4 f2 | e4 d4-|
d4 d'3 c' | b2 a4 a2 | g4 z4 | z4 a2 d'2- | d' ^c'/=b/ c'2 d'2 "\b"b2 |
f g a2 g3 g | f4 e4 | z4 d2 a2-| a ^g/^f/ g2 a2 "\="f2 | e4 d3 f |
d f2 b2 a g f |e2 f2 g4 | f4 z4 | z4 a2 d'2-|d' ^c'/=b/ c'2 d'2 z d |
_e f g2 f4-| f2 f2 !mediumphrase! f d/e/ f g/a/ | b a g f _e c c'2-| c' b/a/ b a/g/ a4 | g8|
g3 f _e d c2 | z2 d2 d'3 c' | b a g a b2 a2 | g3 a b2 a2 | z4 d2 g2-|g ^f/e/ f2 g4 ||
z b>b b a/f/ b2 b | b g g g z b>b b | a g>a b a g ^f2 | ^f2 g g2 b g b |
a2 z2 z/ f/f/_e/ d c-|c/B/ A z2 z/ f/f/_e/ d c | =B _e/f/ g2 z2 z/ g/g/f/ | e>d c2 f3 g -|
g f f2 f4 | z8 | z2 a4 g2-|g2 ^f2 b2 a2 -|a2 g2 ^f2 g2-|g2 ^f2 g4 |
z8 | z8 | d2 b3 a/b/ a g | a3 b a g d2 | z b a d'>c' b a2 | a c =B c d _e B c |
d _e/f/ g2 g2 g2-| g ^f/g/ f e f2 d2 | a8 | z8 | z2 A a>gf/d/ e2|
d4 z2 z d | ^c d e  f e d z2 | z2 a2 b4 | z a f g a4 | a2 z b/b/ b b a/g/a/b/|
a g2 ^f g d/e/"\="f e | d2 z2 z/ a/b/c'/ d' b | a2 g2 f B A B | z/ c/d/_e/ f2 d2 z g |
^f a2 f a2 z2 | z/ ^c/d/e/ f/g/a/=b/ ^c' d'2 c' | d'2 a4 ^g ^f | ^g =b c' b a "\="g/f/ e d/c/ |
=B2 A2 B4 | A4 z ^c d e | f g a =b ^c'2 d'2-|d'2 ^c'2 d'2 a2-|
a2 g G d e f2 | e2 d2 ^c4 | =c4 d2 a2-|a2 d2 z e f g | a3 g H^f4|]
V:4 name="Tenor II" clef=alto middle=c octave=-1
A2 d3 ^c/=B/ c2 | d e f4 f2 | e4 d2 c2 | B4 A4-|A4 e2 f g |
a3 g f e d2 | e2 f2 c4 | Z3 | d2 g3 ^f/e/ f2 | g2 d e f2 c2 |
d3 c B4 | A8-|A4 f2 c2 | d2 =B2 ^c2 d2 | A3 A ^f>e d e |
^f2 g2 d4-|d4 z4 | z4 d2 a2-|a g/f/ g2 a4 | A4 z4 |
c2 f3 e/d/ e2 | f g a4 A2-| A2 d3 c/=B/ A B | c2 =B2  A4-|A4 B3 A |
B A B4 B2 | c4 z4 | A2 c3 B/A/ B2 | A2 c2 A4 | A6 B2 |
G4 A2 B2 | c4 B2 z c | G d _e B c4 | d4 d3 c | =B G B c d2 G2 |
z4 c2 g2-|g ^f/e/ f2 g2 d2-| d c B A G2 A2 | z8 | G2 c3 B/A/ B2 | A4 G4 ||
z g>g g d _e>d e | B c G G z d>d d | c B>A G A B A2 | A2 B B2 B _e d |
z/ A/A/G/ F2 z2 z/ f/f/_e/ |d c>B A z2 z/ f/f/_e/ | d G z d _e c d>d |c2 F/A/A/G/ F2 B G-|
G/A/ B2 A !mediumphrase!B2 d2-|d2 c2 B4 | A4 d4 | z4 g2 f2-|f2 _e2 d4-|d4 d2 g2|
a2 g4 ^f2 | g4 z4 |z2 g2 d4 | z a ^f g a _b a g | d4 z2 z d |
=B c d _e B c d e | d c2 =B c2 _B2-|B A/B/ A G A4-| A4 z4 | z4 A a3/ g/f/d/ |
a d z d ^c d A2 | z G ^F G A B F G| A2 z2 z4 | z d ^c d e2 d2 |
^c2 d2 e4 | ^f2z B B/c/d/e/ =f/e/f/g/ | a/f/ g d2 G/A/ B A2 | d8 | d2 z2 z4|
z2 z z/ F/ G/A/B/c/ d c | d8 | z z/ ^c/ d/e/f/g/ a f e2 | d c/=B/ A B c2 B A|
=B2 A E z4 | z =B c d e4-| e2 d2 ^c e f e | d c/=B/ A G/F/ E2 D2 | A4 z2 z G |
c d e2 d2 z A | B c d2 A4-|A4 f4 | z4 z2 d2 | e2 A2 HA4 |]
V:5 clef=bass name=Bass middle=d octave=-2
z8 | z4 d2 a2-| a g/f/ g a b2 a2 | g4 a4 | A8-|
A4 B4 |c8 | f2 z2 z4 | Z5 | z4 A2 d2-|
d ^c/=B/ c2 d2 A2 | B2 G2 A4 | z8 | d2 g3 ^f/e/ f2 | g2 d2 f4 |
e4 d3 c | B4 A4-|A4 B>c d e | f4 c4 | d e f d a3 g |
^f2 g2 d2 =f2 | e3 d ^c2 d2 | A4 z4 | z8 | c2 f3 e/d/ e2 |
f4 g2 d2 |f2 c2 d4 | a3 g ^f2 g2 | _e4 f4-|f4 B2 z2 |
z8 | z8 | z4 G2 c2-|c =B/A/ B2 c2 _e2 | d3 c B A G2-|
G2 g4 f2 |_e4 d4 | c4 d4-|d4 G4 ||
z8 | z4 z b>b b | f g>^f g d G d2 | d2 g _e2 d c B | f8 |
f8 | g8 | z2 z/ f/f/_e/ d>c B e | "(\b)"e B f2 !mediumphrase! B2 b2-|b2 a2 g4 |
^f4 d4-|d4 z4 | z8 | z2 d2 =B2 c2-|c2 B2 A4 |
G4 d4 | z8 | d4 d4 | z2 z g ^f g d2 | z4 z2 z c |
=B c G2 c2 G2 | d8 | z4 z2 d2 | a8| z4 z2 z a |
^f g  a b f g a b | a8-|a4 g4 | a4 A4 | 
d2 z2 z4 | z8 | z8 | z z/ d/ _e/f/g/a/ b2 f2 | f4  z4 |
z2 z z/ d/ g/a/b/c'/ d' g | a8 | d e f2 e4-| e4 z4 |
e4 e3 d | ^c2 d2 A4 | z4 A4 | z2 z A B c d e |
f2 c2  d4 | G4 A4 | z2 a2 b2 f2-|f2 g2 a4 | A4 Hd4 |]
